X:1
T:[ID 7-95]
T:[ID 7-95]
T:Bezeichnung standardisiert: Quadrille Quadrillge
T:Urheber unbekannt Datum in der hier transkribierten schriftlichen Quelle: 1776 - 1791
C:Urheber unbekannt
C:Datum in der hier transkribierten schriftlichen Quelle: 1776 - 1791
L:1/8
M:2/4
K:D
V:1 treble 
V:1
 A | (Ad).d.d | (df).f.f | .e/.d/.e/.f/ .e.e | .e3 (g/f/) | .e(e/d/) .c(c/B/) | Agfe | %7
 f/g/a/f/ dd | d3 :: a/g/ | fa b/a/g/f/ | eg a/g/f/e/ | d(e/f/) g/f/e/d/ | c(B/c/) A(a/g/) | %14
 fa b/a/g/f/ | eg a/g/f/e/ | dg f/e/d/c/ | d3 :|[M:3/4]"^Trio"!p! !fermata!a2 g2 | f2 z2 | g2 f2 | %21
 e2 z2 | g2 f2 | e2 z g | fdec | d2 z2 ::!f! A3 B/c/ | dcBA | GFED | A2 z2 |!p! (ge) z g | %31
 (fd) z f | edec | d3 :| %34

